X:1
T: Bruise the Pease
C:
R:Jig
Q:180
K:Dm
M:6/8
L:1/16
|:D2A2G2 F6|A4G2 F6|D2A2G2 F4G2|A4G2 A2F2D2|
A4G2 F6|A4G2 F4E2|D2E2D2 c4A2|d4A2 G2E2D2:|
A4d2 d6|e2d2c2 d6|A4d2 d4e2|f4d2 e2c2A2|
A4=B2 c6|=B2d2B2 c6|A4=B2 c4d2|e4d2 c2A2G2|
A4d2 d6|e2d2c2 d6|A4d2 d4e2|f4d2 e2c2A2|
d4=B2 c4A2|A2c2AG F4E2|D2E2D2 c4A2|d4A2 G2E2D2||
